X:71
T:A Paris sur le petit pont
C:trad.
O:France
M:2/4
L:1/8
Q:1/4=70
K:F
A A/2A/2 GF|cc FF/2G/2|AAGF|1c2A2:|2c2AF/2G/2|AAGF|GGCF|CFCF|G2G2|
|:FGAF|G/2F/2E/2D/2Cc|c>B AB|G2F2:||
W:
W:A Paris sur le Petit Pont
W:Sur le bord d'une fontaine
W:Mon pre a fait btir maison
W:Tuton, tuton, tutaine,
W:
W:(refrain)
W:Levez, belle votre cotillon
W:Il est si long qu'il trane.
W:
W:L'a fait btir  trois pignons
W:Par quatre-vingt jeunes maons.
W:Ils m'ont tous demand mon nom.
W:Marguerite c'est mon nom.
W:Que portes-tu dans ton giron
W:C'est un pat de trois pigeons
W:Assieds-toi nous le mangerons
